core/assets/icons/trust_payment.svg

<svg width="24" height="24" viewBox="0 0 24 24" xmlns="http://www.w3.org/2000/svg"><g id="trust-payment"><path id="Vector" d="M9.62002 16.9C5.84002 16.9 2.77002 13.83 2.77002 10.05C2.77002 6.27001 5.84002 3.19001 9.62002 3.19001C13.4 3.19001 16.24 6.04001 16.45 9.63001C16.65 9.63001 16.85 9.62001 17.06 9.62001C17.53 9.62001 18 9.65001 18.46 9.70001C18.27 4.97001 14.39 1.20001 9.62002 1.20001C4.85002 1.20001 0.77002 5.15001 0.77002 10.04C0.77002 14.93 4.73002 18.89 9.62002 18.89C10.05 18.89 10.47 18.85 10.89 18.79V16.77C10.48 16.85 10.06 16.89 9.62002 16.89V16.9Z"/><path id="Vector_2" d="M8.61988 9.73002L6.37988 11.97L7.79988 13.38L10.6199 10.56V5.27002H8.61988V9.73002Z"/><path id="Vector_3" d="M12.8901 14.02V14.04H12.9201L12.8901 14.02Z"/><path id="Vector_4" d="M12.8799 15.13L12.8899 15.14V15.13H12.8799Z"/><path id="Vector_5" d="M21.25 15.13H21.23V15.14L21.25 15.13Z"/><path id="Vector_6" d="M23.2301 12.76C23.2301 11.01 21.0001 9.96999 18.4501 9.68999C17.9901 9.63999 17.5201 9.60999 17.0501 9.60999C16.8501 9.60999 16.6501 9.60999 16.4401 9.61999C13.5801 9.74999 10.8701 10.82 10.8701 12.75V19.9C10.8701 21.89 14.0701 22.8 17.0401 22.8C20.0101 22.8 23.2101 21.89 23.2101 19.9V12.75L23.2301 12.76ZM16.2701 11.64C16.5201 11.62 16.7801 11.61 17.0501 11.61C17.5101 11.61 17.9201 11.64 18.3101 11.69C20.1001 11.89 21.1001 12.49 21.2201 12.76C21.1901 12.83 21.0801 12.94 20.9201 13.04C20.6501 13.23 20.1901 13.44 19.5601 13.6C19.0301 13.74 18.3601 13.85 17.5801 13.88C17.4101 13.88 17.2401 13.9 17.0501 13.9C16.4101 13.9 15.8401 13.85 15.3501 13.77C15.0501 13.72 14.7801 13.66 14.5401 13.6C13.8901 13.43 13.4301 13.21 13.1601 13.03C13.0001 12.92 12.9001 12.83 12.8801 12.76C12.9701 12.47 14.1401 11.77 16.2701 11.62V11.64ZM21.2301 15.13V16.52C21.2301 16.52 21.1301 16.62 21.0601 16.69C20.5701 17.07 19.2101 17.62 17.0601 17.62C16.2101 17.62 15.4901 17.53 14.8901 17.4C13.9801 17.2 13.3601 16.92 13.0601 16.69C12.9801 16.63 12.9201 16.57 12.8901 16.52V15.13C13.1701 15.27 13.4701 15.4 13.7901 15.5C14.0201 15.58 14.2701 15.64 14.5201 15.7C15.0801 15.83 15.6701 15.92 16.2601 15.96C16.5201 15.98 16.7901 15.99 17.0601 15.99C17.9301 15.99 18.8001 15.89 19.6001 15.7C20.1901 15.56 20.7401 15.37 21.2301 15.12V15.13ZM21.2301 18.65V20.04C21.2301 20.04 21.1301 20.14 21.0601 20.21C20.5701 20.59 19.2101 21.14 17.0601 21.14C16.2101 21.14 15.4901 21.05 14.8901 20.92C13.9801 20.72 13.3601 20.44 13.0601 20.21C12.9801 20.15 12.9201 20.09 12.8901 20.04V18.65C13.1701 18.79 13.4701 18.92 13.7901 19.02C14.0201 19.1 14.2701 19.16 14.5201 19.22C15.0801 19.35 15.6701 19.44 16.2601 19.48C16.5201 19.5 16.7901 19.51 17.0601 19.51C17.9301 19.51 18.8001 19.41 19.6001 19.22C20.1901 19.08 20.7401 18.89 21.2301 18.64V18.65Z"/></g></svg>

<svg xmlns="http://www.w3.org/2000/svg" width="24" height="24" fill="none"><g fill="#191C22"><path d="M9.62 16.9a6.854 6.854 0 0 1 0-13.71c3.78 0 6.62 2.85 6.83 6.44.2 0 .4-.01.61-.01.47 0 .94.03 1.4.08-.19-4.73-4.07-8.5-8.84-8.5S.77 5.15.77 10.04s3.96 8.85 8.85 8.85c.43 0 .85-.04 1.27-.1v-2.02c-.41.08-.83.12-1.27.12v.01Z"/><path d="m8.62 9.73-2.24 2.24 1.42 1.41 2.82-2.82V5.27h-2v4.46ZM12.89 14.02v.02h.03l-.03-.02ZM12.88 15.13l.01.01v-.01h-.01ZM21.25 15.13h-.02v.01l.02-.01Z"/><path d="M23.23 12.76c0-1.75-2.23-2.79-4.78-3.07-.46-.05-.93-.08-1.4-.08-.2 0-.4 0-.61.01-2.86.13-5.57 1.2-5.57 3.13v7.15c0 1.99 3.2 2.9 6.17 2.9 2.97 0 6.17-.91 6.17-2.9v-7.15l.02.01Zm-6.96-1.12a9.774 9.774 0 0 1 2.04.05c1.79.2 2.79.8 2.91 1.07-.03.07-.14.18-.3.28-.27.19-.73.4-1.36.56-.53.14-1.2.25-1.98.28-.17 0-.34.02-.53.02-.64 0-1.21-.05-1.7-.13-.3-.05-.57-.11-.81-.17-.65-.17-1.11-.39-1.38-.57-.16-.11-.26-.2-.28-.27.09-.29 1.26-.99 3.39-1.14v.02Zm4.96 3.49v1.39l-.17.17c-.49.38-1.85.93-4 .93-.85 0-1.57-.09-2.17-.22-.91-.2-1.53-.48-1.83-.71a.675.675 0 0 1-.17-.17v-1.39c.28.14.58.27.9.37.23.08.48.14.73.2.56.13 1.15.22 1.74.26a11.11 11.11 0 0 0 3.34-.26c.59-.14 1.14-.33 1.63-.58v.01Zm0 3.52v1.39l-.17.17c-.49.38-1.85.93-4 .93-.85 0-1.57-.09-2.17-.22-.91-.2-1.53-.48-1.83-.71a.675.675 0 0 1-.17-.17v-1.39c.28.14.58.27.9.37.23.08.48.14.73.2.56.13 1.15.22 1.74.26a11.11 11.11 0 0 0 3.34-.26c.59-.14 1.14-.33 1.63-.58v.01Z"/></g></svg>
